source/img/icon-insta.svg

<svg width="24" height="23" viewBox="0 0 24 23" fill="none" xmlns="http://www.w3.org/2000/svg">
<path fill-rule="evenodd" clip-rule="evenodd" d="M3.85019 0.378787H20.5746C21.3462 0.359772 22.0918 0.65791 22.6375 1.20365C23.1833 1.74939 23.4814 2.49501 23.4624 3.26658V19.991C23.4814 20.7625 23.1833 21.5082 22.6375 22.0539C22.0918 22.5997 21.3462 22.8978 20.5746 22.8788H3.85019C3.07863 22.8978 2.33301 22.5997 1.78727 22.0539C1.24153 21.5082 0.943393 20.7625 0.962404 19.991V3.26658C0.943393 2.49502 1.24153 1.7494 1.78727 1.20366C2.33301 0.657914 3.07863 0.359775 3.85019 0.378787ZM17.353 2.87847C16.7941 2.88 16.3415 3.33264 16.34 3.89147V6.31664C16.3415 6.87548 16.7941 7.32815 17.353 7.32969H19.8965C20.455 7.32767 20.9071 6.8751 20.9084 6.31664V3.89147C20.907 3.33302 20.455 2.88048 19.8965 2.87847H17.353ZM20.9197 9.8938H18.939C19.1305 10.5193 19.2279 11.1698 19.2277 11.824C19.1088 15.6009 16.0126 18.6011 12.2338 18.6011C8.45499 18.6011 5.35881 15.6009 5.23982 11.824C5.23971 11.1698 5.33704 10.5193 5.5286 9.8938H3.46325V19.3987C3.46447 19.8923 3.8643 20.2921 4.35789 20.2933H20.0254C20.5189 20.2921 20.9186 19.8922 20.9197 19.3987L20.9197 9.8938ZM12.2338 7.2012C9.8332 7.27679 7.94098 9.27097 7.99138 11.6722C8.04178 14.0734 10.016 15.9865 12.4176 15.9613C14.8193 15.9361 16.7529 13.982 16.7529 11.5803C16.7135 9.12342 14.6906 7.16327 12.2338 7.2012Z" fill="white"/>
</svg>

<svg width="24" height="23" fill="none" xmlns="http://www.w3.org/2000/svg"><path fill-rule="evenodd" clip-rule="evenodd" d="M3.85.379h16.725a2.819 2.819 0 012.887 2.888V19.99a2.819 2.819 0 01-2.887 2.888H3.85A2.819 2.819 0 01.962 19.99V3.267A2.82 2.82 0 013.85.379zm13.503 2.5A1.016 1.016 0 0016.34 3.89v2.426a1.016 1.016 0 001.013 1.013h2.543a1.016 1.016 0 001.012-1.013V3.89a1.016 1.016 0 00-1.012-1.013h-2.543zm3.567 7.015h-1.981c.192.625.289 1.276.289 1.93a6.997 6.997 0 01-13.988 0c0-.654.097-1.305.289-1.93H3.463v9.505a.897.897 0 00.895.894h15.667a.897.897 0 00.895-.894V9.894zM12.234 7.2a4.381 4.381 0 104.519 4.38 4.451 4.451 0 00-4.52-4.38z" fill="#fff"/></svg>
